X: 32
%
U:~=!turn!
U:k=!crescendo(!
U:m=!crescendo)!
U:n=!diminuendo(!
U:p=!diminuendo)!
T: A Bhean an taigh nach leig thu steach am fear a tha air fogairt*
T: Good Wife, Admit the Wanderer*
C:From Capt. Fraser's Collection
O:Scotland
B:Keith Norman MacDonald : "The Skye collection of the best reels & strathspeys extant" : 1887
Z:Ralph Palmer
R:Air
M:2/4
L:1/8
K:Bb
"Slow." ((3F/G/A/) | !p!.[DB]"_with expression of hesitation.".[Fd] .[DB] z/ (d//c//) | .[DB] .[Fd] .[DB] z/ (d//e//) | fdBF | G3 ((3F/G/A/) | .[DB] "_cres.".[Fd] .[DB] z2 (d//c//) | .B/.B/ .d/.d/ B (d/e/) | !pp![df][df][df][df] | [D3B3] :|
((3B/c/d/) | !p!e>"_cres."fg>e | f>ed>f | {/d}e>d f>F | G3 ((3F/G/A/) | !p!.[DB] .[Fd] .[DB] z/ (d//c//) | .B/.B/ .d/.d/ B (d/e/) | !pp![df][df][df][df] | [B3D3] ((3B/c/d/) |
"_cres."e>fg>e | {/d}b>gfd | fdBF | G3 ((3F/G/A/) | !f!B>F G/F/E/D/ k| (d/c/)(d/e/ f/g/a/)Hmb/ n| f>d Tc2{Bc}p | [D3B3] |]


